px22/media/px22.svg

<?xml version="1.0" encoding="utf-8"?>
<!-- Generator: Adobe Illustrator 19.0.0, SVG Export Plug-In . SVG Version: 6.00 Build 0)  -->
<svg version="1.1" id="Ebene_1" xmlns="http://www.w3.org/2000/svg" xmlns:xlink="http://www.w3.org/1999/xlink" x="0px" y="0px"
	 viewBox="0 0 581.3 252.1" style="enable-background:new 0 0 581.3 252.1;" xml:space="preserve">
<style type="text/css">
	.st0{fill:#D86C34;}
	.st1{fill:none;}
</style>
<polygon id="XMLID_77_" points="211.3,119 298.1,0 258.3,0 198,88.1 171.2,116.8 67.4,255.1 110.4,255.1 183.3,147.1 "/>
<g id="XMLID_76_">
	<path id="XMLID_15_" d="M185.3,158.4l-2.6-10.4l-5.8,9.8L136.4,216H96.9l73.7-98.8l-26.5-72.9l-14.1-20.7h46.1L196,77.5l2.6,9.8
		l5.8-9.8l37.7-53.9H281l-69.7,95.3l35.1,97.1h-40.3L185.3,158.4z"/>
	<path id="XMLID_21_" class="st0" d="M281.3,254.2h-20.4L322.1-5.2h21.3L281.3,254.2z"/>
	<path id="XMLID_23_" class="st0" d="M342.9,216l-2.9-12.7c0-0.6,2.6-3.5,5.5-6.6c17.9-20.2,64.2-72.3,64.2-103.1
		c0-19.3-13-28.5-26.2-28.5c-11.8,0-24.5,6.9-33.1,16.7L340,61.6c11.5-9.8,29.4-15.8,47.5-15.8c25.1,0,49,14.7,49,44.1
		c0,50.4-63.6,103.7-63.6,103.7h73.4l-2.9,22.5H342.9z"/>
	<path id="XMLID_25_" class="st0" d="M469.6,216l-2.9-12.7c0-0.6,2.6-3.5,5.5-6.6c17.9-20.2,64.2-72.3,64.2-103.1
		c0-19.3-13-28.5-26.2-28.5c-11.8,0-24.5,6.9-33.1,16.7l-10.4-20.2c11.5-9.8,29.4-15.8,47.5-15.8c25.1,0,49,14.7,49,44.1
		c0,50.4-63.6,103.7-63.6,103.7H573l-2.9,22.5H469.6z"/>
</g>
<g id="XMLID_74_">
	<rect id="XMLID_19_" x="-7.7" y="-1.9" class="st1" width="149.1" height="279.7"/>
	<path id="XMLID_16_" d="M24,215.5v-4.6c0-25.1,0.6-49.8,0.3-72c0-48.7,2.6-95-7.8-108l2-4.9l51.8-1.7c1.2,0,2,0,3.2,0
		c28.8,0,63.6,11.8,63.6,58.8c0,35.4-31.1,60.5-69.1,60.5c-5.2,0-10.1-0.6-15.3-1.7c0.6,29.1,1.4,64.8,2.6,73.7H24z M111.5,89.4
		c0-36.6-24.2-49.5-42.3-49L53.6,41c-0.9,10.4-0.9,51-0.9,76.9c0,3.7,0,6.6,0,8.6c4,2,8.9,2.6,18.1,2.6
		C93.1,129.1,111.5,113.9,111.5,89.4z"/>
</g>
<g id="XMLID_14_">
</g>
<g id="XMLID_27_">
</g>
<g id="XMLID_28_">
</g>
<g id="XMLID_29_">
</g>
<g id="XMLID_30_">
</g>
<g id="XMLID_31_">
</g>
</svg>

<?xml version="1.0" encoding="UTF-8" standalone="no"?>
<!DOCTYPE svg PUBLIC "-//W3C//DTD SVG 1.1//EN" "http://www.w3.org/Graphics/SVG/1.1/DTD/svg11.dtd">
<svg width="100%" height="100%" viewBox="0 0 557 253" version="1.1" xmlns="http://www.w3.org/2000/svg" xmlns:xlink="http://www.w3.org/1999/xlink" xml:space="preserve" xmlns:serif="http://www.serif.com/" style="fill-rule:evenodd;clip-rule:evenodd;stroke-linejoin:round;stroke-miterlimit:2;">
    <g id="XMLID_77_" transform="matrix(1,0,0,1,-10,0)">
        <path d="M211.3,119L298.1,0L258.3,0L198,88.1L171.2,116.8L67.4,255.1L110.4,255.1L183.3,147.1L211.3,119Z" style="fill-rule:nonzero;"/>
    </g>
    <g id="XMLID_76_">
        <g id="XMLID_15_" transform="matrix(1,0,0,1,-10,0)">
            <path d="M185.3,158.4L182.7,148L176.9,157.8L136.4,216L96.9,216L170.6,117.2L144.1,44.3L130,23.6L176.1,23.6L196,77.5L198.6,87.3L204.4,77.5L242.1,23.6L281,23.6L211.3,118.9L246.4,216L206.1,216L185.3,158.4Z" style="fill-rule:nonzero;"/>
        </g>
        <g id="XMLID_21_" transform="matrix(1,0,0,1,-10,0)">
            <path d="M281.3,254.2L260.9,254.2L322.1,-5.2L343.4,-5.2L281.3,254.2Z" style="fill:rgb(216,108,52);fill-rule:nonzero;"/>
        </g>
        <g id="XMLID_23_" transform="matrix(1,0,0,1,-10,0)">
            <path d="M342.9,216L340,203.3C340,202.7 342.6,199.8 345.5,196.7C363.4,176.5 409.7,124.4 409.7,93.6C409.7,74.3 396.7,65.1 383.5,65.1C371.7,65.1 359,72 350.4,81.8L340,61.6C351.5,51.8 369.4,45.8 387.5,45.8C412.6,45.8 436.5,60.5 436.5,89.9C436.5,140.3 372.9,193.6 372.9,193.6L446.3,193.6L443.4,216.1L342.9,216.1L342.9,216Z" style="fill:rgb(216,108,52);fill-rule:nonzero;"/>
        </g>
        <g id="XMLID_23_1" serif:id="XMLID_23_" transform="matrix(1,0,0,1,106,0)">
            <path d="M342.9,216L340,203.3C340,202.7 342.6,199.8 345.5,196.7C363.4,176.5 409.7,124.4 409.7,93.6C409.7,74.3 396.7,65.1 383.5,65.1C371.7,65.1 359,72 350.4,81.8L340,61.6C351.5,51.8 369.4,45.8 387.5,45.8C412.6,45.8 436.5,60.5 436.5,89.9C436.5,140.3 372.9,193.6 372.9,193.6L446.3,193.6L443.4,216.1L342.9,216.1L342.9,216Z" style="fill:rgb(216,108,52);fill-rule:nonzero;"/>
        </g>
    </g>
    <g id="XMLID_74_">
        <g id="XMLID_19_" transform="matrix(1,0,0,1,-10,0)">
            <rect x="-7.7" y="-1.9" width="149.1" height="279.7" style="fill:none;"/>
        </g>
        <g id="XMLID_16_" transform="matrix(1,0,0,1,-10,0)">
            <path d="M24,215.6L24,210.9C24,185.8 24.6,161.1 24.3,138.9C24.3,90.2 26.9,43.9 16.5,30.9L18.5,26L70.3,24.3L73.5,24.3C102.3,24.3 137.1,36.1 137.1,83.1C137.1,118.5 106,143.6 68,143.6C62.8,143.6 57.9,143 52.7,141.9C53.3,171 54.1,206.7 55.3,215.6L24,215.6ZM111.5,89.4C111.5,52.8 87.3,39.9 69.2,40.4L53.6,41C52.7,51.4 52.7,92 52.7,117.9L52.7,126.5C56.7,128.5 61.6,129.1 70.8,129.1C93.1,129.1 111.5,113.9 111.5,89.4Z" style="fill-rule:nonzero;"/>
        </g>
    </g>
</svg>
